Themes/OneUI/assets/svg/ic_settings_sharing.svg

<svg width="32" height="32" viewBox="0 0 32 32" fill="none" xmlns="http://www.w3.org/2000/svg">
<g clip-path="url(#clip0_1_466)">
<path d="M28.4072 3.59315C26.4342 1.73915 23.7422 0.687151 20.7702 0.294151C17.9322 -0.0828494 16.0002 0.0101506 16.0002 0.0101506C16.0002 0.0101506 14.0672 -0.0828494 11.2302 0.294151C8.25819 0.687151 5.56619 1.73915 3.59319 3.59315C1.73919 5.56515 0.687187 8.25815 0.293187 11.2302C-0.0828132 14.0672 0.0101868 16.0002 0.0101868 16.0002C0.0101868 16.0002 -0.0828132 17.9322 0.293187 20.7702C0.687187 23.7412 1.73919 26.4342 3.59319 28.4072C5.56619 30.2612 8.25819 31.3132 11.2302 31.7072C14.0672 32.0832 16.0002 31.9902 16.0002 31.9902C16.0002 31.9902 17.9322 32.0832 20.7702 31.7072C23.7422 31.3132 26.4342 30.2612 28.4062 28.4072C30.2612 26.4342 31.3132 23.7412 31.7072 20.7702C32.0832 17.9322 31.9902 16.0002 31.9902 16.0002C31.9902 16.0002 32.0832 14.0672 31.7072 11.2302C31.3132 8.25815 30.2612 5.56515 28.4072 3.59315Z" fill="#1D49C2"/>
<path d="M14.875 15.337C16.901 15.337 18.544 13.695 18.544 11.669C18.544 9.642 16.901 8 14.875 8C12.85 8 11.206 9.642 11.206 11.669C11.206 13.695 12.85 15.337 14.875 15.337Z" fill="white"/>
<path d="M21.38 23.752C21.19 23.912 20.93 24.002 20.65 24.002H9.1C8.49 24.002 8 23.562 8 23.012V22.242C8 19.472 11.08 16.912 14.88 16.912C16.09 16.912 17.22 17.172 18.2 17.622C17.16 17.872 16.38 18.812 16.38 19.942C16.38 21.262 17.46 22.342 18.779 22.342C18.94 22.342 19.1 22.322 19.26 22.282L21.279 23.482C21.31 23.572 21.34 23.662 21.38 23.752Z" fill="white"/>
<path d="M23.6 21.7C23.379 21.7 23.184 21.78 23.008 21.888L19.905 20.054C19.91 20.014 19.928 19.979 19.928 19.938C19.928 19.897 19.91 19.862 19.906 19.822L23.008 17.987C23.184 18.096 23.379 18.175 23.6 18.175C24.236 18.175 24.75 17.66 24.75 17.026C24.75 16.39 24.236 15.875 23.6 15.875C22.965 15.875 22.45 16.39 22.45 17.026C22.45 17.067 22.469 17.101 22.473 17.141L19.371 18.976C19.196 18.867 19 18.787 18.779 18.787C18.143 18.787 17.628 19.303 17.628 19.938C17.628 20.573 18.143 21.088 18.779 21.088C19 21.088 19.195 21.009 19.371 20.9L22.473 22.734C22.469 22.774 22.45 22.809 22.45 22.85C22.45 23.486 22.965 24 23.6 24C24.236 24 24.75 23.486 24.75 22.85C24.75 22.215 24.236 21.7 23.6 21.7Z" fill="white"/>
</g>
<defs>
<clipPath id="clip0_1_466">
<rect width="32" height="32" fill="white"/>
</clipPath>
</defs>
</svg>

<?xml version="1.0" encoding="UTF-8" standalone="no"?>
<svg
   width="32.000385"
   height="32.000385"
   viewBox="0 0 32.000385 32.000385"
   fill="none"
   version="1.1"
   id="svg979"
   sodipodi:docname="ic_settings_sharing.svg"
   xmlns:inkscape="http://www.inkscape.org/namespaces/inkscape"
   xmlns:sodipodi="http://sodipodi.sourceforge.net/DTD/sodipodi-0.dtd"
   xmlns="http://www.w3.org/2000/svg"
   xmlns:svg="http://www.w3.org/2000/svg">
  <sodipodi:namedview
     id="namedview981"
     pagecolor="#ffffff"
     bordercolor="#666666"
     borderopacity="1.0"
     inkscape:showpageshadow="2"
     inkscape:pageopacity="0.0"
     inkscape:pagecheckerboard="0"
     inkscape:deskcolor="#d1d1d1" />
  <g
     clip-path="url(#clip0_1_466)"
     id="g972">
    <path
       d="m 28.4072,3.59315 c -1.973,-1.854 -4.665,-2.905999 -7.637,-3.298999 -2.838,-0.3770004 -4.77,-0.2840004 -4.77,-0.2840004 0,0 -1.933,-0.093 -4.77,0.2840004 -2.97201,0.393 -5.66401,1.444999 -7.63701,3.298999 -1.854,1.972 -2.906003,4.665 -3.300003,7.63705 -0.3760002,2.837 -0.2830002,4.77 -0.2830002,4.77 0,0 -0.093,1.932 0.2830002,4.77 0.394,2.971 1.446003,5.664 3.300003,7.637 1.973,1.854 4.665,2.906 7.63701,3.3 2.837,0.376 4.77,0.283 4.77,0.283 0,0 1.932,0.093 4.77,-0.283 2.972,-0.394 5.664,-1.446 7.636,-3.3 1.855,-1.973 2.907,-4.666 3.301,-7.637 0.376,-2.838 0.283,-4.77 0.283,-4.77 0,0 0.093,-1.933 -0.283,-4.77 -0.394,-2.97205 -1.446,-5.66505 -3.3,-7.63705 z"
       fill="#1d49c2"
       id="path964" />
    <path
       d="m 14.875,15.337 c 2.026,0 3.669,-1.642 3.669,-3.668 C 18.544,9.642 16.901,8 14.875,8 c -2.025,0 -3.669,1.642 -3.669,3.669 0,2.026 1.644,3.668 3.669,3.668 z"
       fill="#ffffff"
       id="path966" />
    <path
       d="m 21.38,23.752 c -0.19,0.16 -0.45,0.25 -0.73,0.25 H 9.1 c -0.61,0 -1.1,-0.44 -1.1,-0.99 v -0.77 c 0,-2.77 3.08,-5.33 6.88,-5.33 1.21,0 2.34,0.26 3.32,0.71 -1.04,0.25 -1.82,1.19 -1.82,2.32 0,1.32 1.08,2.4 2.399,2.4 0.161,0 0.321,-0.02 0.481,-0.06 l 2.019,1.2 c 0.031,0.09 0.061,0.18 0.101,0.27 z"
       fill="#ffffff"
       id="path968" />
    <path
       d="m 23.6,21.7 c -0.221,0 -0.416,0.08 -0.592,0.188 l -3.103,-1.834 c 0.005,-0.04 0.023,-0.075 0.023,-0.116 0,-0.041 -0.018,-0.076 -0.022,-0.116 l 3.102,-1.835 c 0.176,0.109 0.371,0.188 0.592,0.188 0.636,0 1.15,-0.515 1.15,-1.149 0,-0.636 -0.514,-1.151 -1.15,-1.151 -0.635,0 -1.15,0.515 -1.15,1.151 0,0.041 0.019,0.075 0.023,0.115 l -3.102,1.835 C 19.196,18.867 19,18.787 18.779,18.787 c -0.636,0 -1.151,0.516 -1.151,1.151 0,0.635 0.515,1.15 1.151,1.15 0.221,0 0.416,-0.079 0.592,-0.188 l 3.102,1.834 c -0.004,0.04 -0.023,0.075 -0.023,0.116 0,0.636 0.515,1.15 1.15,1.15 0.636,0 1.15,-0.514 1.15,-1.15 0,-0.635 -0.514,-1.15 -1.15,-1.15 z"
       fill="#ffffff"
       id="path970" />
  </g>
  <defs
     id="defs977">
    <clipPath
       id="clip0_1_466">
      <rect
         width="32"
         height="32"
         fill="#ffffff"
         id="rect974"
         x="0"
         y="0" />
    </clipPath>
  </defs>
</svg>
